images/3235470.svg

<?xml version="1.0" encoding="UTF-8"?>
<svg xmlns="http://www.w3.org/2000/svg" xmlns:xlink="http://www.w3.org/1999/xlink" width="300pt" height="300pt" viewBox="0 0 300 300" version="1.1">
<defs>
<g>
<symbol overflow="visible" id="glyph0-0">
<path style="stroke:none;" d="M 0.453125 1.59375 L 0.453125 -6.34375 L 4.953125 -6.34375 L 4.953125 1.59375 Z M 0.953125 1.09375 L 4.453125 1.09375 L 4.453125 -5.84375 L 0.953125 -5.84375 Z M 0.953125 1.09375 "/>
</symbol>
<symbol overflow="visible" id="glyph0-1">
<path style="stroke:none;" d="M 0.890625 -6.5625 L 2.078125 -6.5625 L 4.984375 -1.078125 L 4.984375 -6.5625 L 5.84375 -6.5625 L 5.84375 0 L 4.65625 0 L 1.75 -5.484375 L 1.75 0 L 0.890625 0 Z M 0.890625 -6.5625 "/>
</symbol>
<symbol overflow="visible" id="glyph0-2">
<path style="stroke:none;" d="M 3.546875 -5.953125 C 2.898438 -5.953125 2.382812 -5.710938 2 -5.234375 C 1.625 -4.753906 1.4375 -4.101562 1.4375 -3.28125 C 1.4375 -2.445312 1.625 -1.789062 2 -1.3125 C 2.382812 -0.832031 2.898438 -0.59375 3.546875 -0.59375 C 4.191406 -0.59375 4.703125 -0.832031 5.078125 -1.3125 C 5.453125 -1.789062 5.640625 -2.445312 5.640625 -3.28125 C 5.640625 -4.101562 5.453125 -4.753906 5.078125 -5.234375 C 4.703125 -5.710938 4.191406 -5.953125 3.546875 -5.953125 Z M 3.546875 -6.6875 C 4.460938 -6.6875 5.195312 -6.375 5.75 -5.75 C 6.300781 -5.132812 6.578125 -4.3125 6.578125 -3.28125 C 6.578125 -2.238281 6.300781 -1.410156 5.75 -0.796875 C 5.195312 -0.179688 4.460938 0.125 3.546875 0.125 C 2.617188 0.125 1.878906 -0.179688 1.328125 -0.796875 C 0.773438 -1.410156 0.5 -2.238281 0.5 -3.28125 C 0.5 -4.3125 0.773438 -5.132812 1.328125 -5.75 C 1.878906 -6.375 2.617188 -6.6875 3.546875 -6.6875 Z M 3.546875 -6.6875 "/>
</symbol>
<symbol overflow="visible" id="glyph0-3">
<path style="stroke:none;" d="M 0.890625 -6.5625 L 1.765625 -6.5625 L 1.765625 -3.875 L 5 -3.875 L 5 -6.5625 L 5.890625 -6.5625 L 5.890625 0 L 5 0 L 5 -3.125 L 1.765625 -3.125 L 1.765625 0 L 0.890625 0 Z M 0.890625 -6.5625 "/>
</symbol>
</g>
</defs>
<g id="surface46145">
<rect x="0" y="0" width="300" height="300" style="fill:rgb(100%,100%,100%);fill-opacity:1;stroke:none;"/>
<path style="fill:none;stroke-width:1.2;stroke-linecap:butt;stroke-linejoin:miter;stroke:rgb(0%,0%,0%);stroke-opacity:1;stroke-miterlimit:10;" d="M 171.234375 210.554688 L 152.789062 203.867188 "/>
<path style="fill:none;stroke-width:1.2;stroke-linecap:butt;stroke-linejoin:miter;stroke:rgb(0%,0%,0%);stroke-opacity:1;stroke-miterlimit:10;" d="M 186.25 197.921875 L 171.234375 210.554688 "/>
<path style="fill:none;stroke-width:1.2;stroke-linecap:butt;stroke-linejoin:miter;stroke:rgb(0%,0%,0%);stroke-opacity:1;stroke-miterlimit:10;" d="M 152.789062 203.867188 L 149.355469 184.550781 "/>
<path style="fill:none;stroke-width:1.2;stroke-linecap:butt;stroke-linejoin:miter;stroke:rgb(0%,0%,0%);stroke-opacity:1;stroke-miterlimit:10;" d="M 149.355469 184.550781 L 145.925781 165.230469 "/>
<path style="fill:none;stroke-width:1.2;stroke-linecap:butt;stroke-linejoin:miter;stroke:rgb(0%,0%,0%);stroke-opacity:1;stroke-miterlimit:10;" d="M 149.355469 184.550781 L 164.371094 171.917969 "/>
<path style="fill:none;stroke-width:1.2;stroke-linecap:butt;stroke-linejoin:miter;stroke:rgb(0%,0%,0%);stroke-opacity:1;stroke-miterlimit:10;" d="M 134.34375 197.179688 L 149.355469 184.550781 "/>
<path style="fill:none;stroke-width:1.2;stroke-linecap:butt;stroke-linejoin:miter;stroke:rgb(0%,0%,0%);stroke-opacity:1;stroke-miterlimit:10;" d="M 145.925781 165.230469 L 127.480469 158.546875 "/>
<path style="fill:none;stroke-width:1.2;stroke-linecap:butt;stroke-linejoin:miter;stroke:rgb(0%,0%,0%);stroke-opacity:1;stroke-miterlimit:10;" d="M 127.480469 158.546875 L 119.972656 164.859375 "/>
<path style="fill:none;stroke-width:1.2;stroke-linecap:butt;stroke-linejoin:miter;stroke:rgb(0%,0%,100%);stroke-opacity:1;stroke-miterlimit:10;" d="M 119.972656 164.859375 L 112.464844 171.175781 "/>
<path style="fill:none;stroke-width:1.2;stroke-linecap:butt;stroke-linejoin:miter;stroke:rgb(0%,0%,100%);stroke-opacity:1;stroke-miterlimit:10;" d="M 112.464844 171.175781 L 114.179688 180.835938 "/>
<path style="fill:none;stroke-width:1.2;stroke-linecap:butt;stroke-linejoin:miter;stroke:rgb(0%,0%,0%);stroke-opacity:1;stroke-miterlimit:10;" d="M 114.179688 180.835938 L 115.898438 190.496094 "/>
<path style="fill:none;stroke-width:1.2;stroke-linecap:butt;stroke-linejoin:miter;stroke:rgb(0%,0%,100%);stroke-opacity:1;stroke-miterlimit:10;" d="M 112.464844 171.175781 L 103.242188 167.832031 "/>
<path style="fill:none;stroke-width:1.2;stroke-linecap:butt;stroke-linejoin:miter;stroke:rgb(0%,0%,0%);stroke-opacity:1;stroke-miterlimit:10;" d="M 103.242188 167.832031 L 94.019531 164.488281 "/>
<path style=" stroke:none;fill-rule:nonzero;fill:rgb(100%,100%,100%);fill-opacity:1;" d="M 109.464844 165.675781 L 116.464844 165.675781 L 116.464844 176.675781 L 109.464844 176.675781 Z M 109.464844 165.675781 "/>
<g style="fill:rgb(0%,0%,100%);fill-opacity:1;">
  <use xlink:href="#glyph0-1" x="109.464844" y="174.338867"/>
</g>
<path style="fill:none;stroke-width:1.2;stroke-linecap:butt;stroke-linejoin:miter;stroke:rgb(0%,0%,0%);stroke-opacity:1;stroke-miterlimit:10;" d="M 115.898438 190.496094 L 134.34375 197.179688 "/>
<path style="fill:none;stroke-width:1.2;stroke-linecap:butt;stroke-linejoin:miter;stroke:rgb(0%,0%,0%);stroke-opacity:1;stroke-miterlimit:10;" d="M 92.535156 162.722656 L 85.027344 169.039062 "/>
<path style="fill:none;stroke-width:1.2;stroke-linecap:butt;stroke-linejoin:miter;stroke:rgb(100%,0%,0%);stroke-opacity:1;stroke-miterlimit:10;" d="M 85.027344 169.039062 L 77.519531 175.355469 "/>
<path style="fill:none;stroke-width:1.2;stroke-linecap:butt;stroke-linejoin:miter;stroke:rgb(0%,0%,0%);stroke-opacity:1;stroke-miterlimit:10;" d="M 95.503906 166.253906 L 88 172.570312 "/>
<path style="fill:none;stroke-width:1.2;stroke-linecap:butt;stroke-linejoin:miter;stroke:rgb(100%,0%,0%);stroke-opacity:1;stroke-miterlimit:10;" d="M 88 172.570312 L 80.492188 178.886719 "/>
<path style="fill:none;stroke-width:1.2;stroke-linecap:butt;stroke-linejoin:miter;stroke:rgb(0%,0%,0%);stroke-opacity:1;stroke-miterlimit:10;" d="M 94.019531 164.488281 L 92.304688 154.832031 "/>
<path style="fill:none;stroke-width:1.2;stroke-linecap:butt;stroke-linejoin:miter;stroke:rgb(100%,0%,0%);stroke-opacity:1;stroke-miterlimit:10;" d="M 92.304688 154.832031 L 90.585938 145.171875 "/>
<path style=" stroke:none;fill-rule:nonzero;fill:rgb(100%,100%,100%);fill-opacity:1;" d="M 71.003906 171.621094 L 79.003906 171.621094 L 79.003906 182.621094 L 71.003906 182.621094 Z M 71.003906 171.621094 "/>
<g style="fill:rgb(100%,0%,0%);fill-opacity:1;">
  <use xlink:href="#glyph0-2" x="71.003906" y="180.28418"/>
</g>
<path style="fill:none;stroke-width:1.2;stroke-linecap:butt;stroke-linejoin:miter;stroke:rgb(100%,0%,0%);stroke-opacity:1;stroke-miterlimit:10;" d="M 90.585938 145.171875 L 81.363281 141.828125 "/>
<path style="fill:none;stroke-width:1.2;stroke-linecap:butt;stroke-linejoin:miter;stroke:rgb(0%,0%,0%);stroke-opacity:1;stroke-miterlimit:10;" d="M 81.363281 141.828125 L 72.140625 138.484375 "/>
<path style=" stroke:none;fill-rule:nonzero;fill:rgb(100%,100%,100%);fill-opacity:1;" d="M 86.585938 139.671875 L 94.585938 139.671875 L 94.585938 150.671875 L 86.585938 150.671875 Z M 86.585938 139.671875 "/>
<g style="fill:rgb(100%,0%,0%);fill-opacity:1;">
  <use xlink:href="#glyph0-2" x="86.585938" y="148.334961"/>
</g>
<path style="fill:none;stroke-width:1.2;stroke-linecap:butt;stroke-linejoin:miter;stroke:rgb(0%,0%,0%);stroke-opacity:1;stroke-miterlimit:10;" d="M 72.140625 138.484375 L 68.710938 119.167969 "/>
<path style="fill:none;stroke-width:1.2;stroke-linecap:butt;stroke-linejoin:miter;stroke:rgb(0%,0%,0%);stroke-opacity:1;stroke-miterlimit:10;" d="M 67.253906 137.359375 L 64.507812 121.90625 "/>
<path style="fill:none;stroke-width:1.2;stroke-linecap:butt;stroke-linejoin:miter;stroke:rgb(0%,0%,0%);stroke-opacity:1;stroke-miterlimit:10;" d="M 57.128906 151.117188 L 72.140625 138.484375 "/>
<path style="fill:none;stroke-width:1.2;stroke-linecap:butt;stroke-linejoin:miter;stroke:rgb(0%,0%,0%);stroke-opacity:1;stroke-miterlimit:10;" d="M 68.710938 119.167969 L 50.265625 112.480469 "/>
<path style="fill:none;stroke-width:1.2;stroke-linecap:butt;stroke-linejoin:miter;stroke:rgb(0%,0%,0%);stroke-opacity:1;stroke-miterlimit:10;" d="M 50.265625 112.480469 L 35.25 125.109375 "/>
<path style="fill:none;stroke-width:1.2;stroke-linecap:butt;stroke-linejoin:miter;stroke:rgb(0%,0%,0%);stroke-opacity:1;stroke-miterlimit:10;" d="M 51.734375 117.277344 L 39.722656 127.378906 "/>
<path style="fill:none;stroke-width:1.2;stroke-linecap:butt;stroke-linejoin:miter;stroke:rgb(0%,0%,0%);stroke-opacity:1;stroke-miterlimit:10;" d="M 35.25 125.109375 L 38.683594 144.429688 "/>
<path style="fill:none;stroke-width:1.2;stroke-linecap:butt;stroke-linejoin:miter;stroke:rgb(0%,0%,0%);stroke-opacity:1;stroke-miterlimit:10;" d="M 38.683594 144.429688 L 57.128906 151.117188 "/>
<path style="fill:none;stroke-width:1.2;stroke-linecap:butt;stroke-linejoin:miter;stroke:rgb(0%,0%,0%);stroke-opacity:1;stroke-miterlimit:10;" d="M 42.101562 140.757812 L 56.855469 146.105469 "/>
<path style="fill:none;stroke-width:1.2;stroke-linecap:butt;stroke-linejoin:miter;stroke:rgb(0%,0%,0%);stroke-opacity:1;stroke-miterlimit:10;" d="M 164.371094 171.917969 L 173.59375 175.261719 "/>
<path style="fill:none;stroke-width:1.2;stroke-linecap:butt;stroke-linejoin:miter;stroke:rgb(0%,0%,100%);stroke-opacity:1;stroke-miterlimit:10;" d="M 173.59375 175.261719 L 182.816406 178.605469 "/>
<path style="fill:none;stroke-width:1.2;stroke-linecap:butt;stroke-linejoin:miter;stroke:rgb(0%,0%,100%);stroke-opacity:1;stroke-miterlimit:10;" d="M 182.816406 178.605469 L 184.53125 188.265625 "/>
<path style="fill:none;stroke-width:1.2;stroke-linecap:butt;stroke-linejoin:miter;stroke:rgb(0%,0%,0%);stroke-opacity:1;stroke-miterlimit:10;" d="M 184.53125 188.265625 L 186.25 197.921875 "/>
<path style="fill:none;stroke-width:1.2;stroke-linecap:butt;stroke-linejoin:miter;stroke:rgb(0%,0%,100%);stroke-opacity:1;stroke-miterlimit:10;" d="M 182.816406 178.605469 L 190.324219 172.289062 "/>
<path style="fill:none;stroke-width:1.2;stroke-linecap:butt;stroke-linejoin:miter;stroke:rgb(0%,0%,0%);stroke-opacity:1;stroke-miterlimit:10;" d="M 190.324219 172.289062 L 197.832031 165.972656 "/>
<path style=" stroke:none;fill-rule:nonzero;fill:rgb(100%,100%,100%);fill-opacity:1;" d="M 179.816406 173.105469 L 186.816406 173.105469 L 186.816406 184.105469 L 179.816406 184.105469 Z M 179.816406 173.105469 "/>
<g style="fill:rgb(0%,0%,100%);fill-opacity:1;">
  <use xlink:href="#glyph0-1" x="179.816406" y="181.768555"/>
</g>
<path style="fill:none;stroke-width:1.2;stroke-linecap:butt;stroke-linejoin:miter;stroke:rgb(0%,0%,0%);stroke-opacity:1;stroke-miterlimit:10;" d="M 200.101562 165.570312 L 198.386719 155.910156 "/>
<path style="fill:none;stroke-width:1.2;stroke-linecap:butt;stroke-linejoin:miter;stroke:rgb(100%,0%,0%);stroke-opacity:1;stroke-miterlimit:10;" d="M 198.386719 155.910156 L 196.671875 146.253906 "/>
<path style="fill:none;stroke-width:1.2;stroke-linecap:butt;stroke-linejoin:miter;stroke:rgb(0%,0%,0%);stroke-opacity:1;stroke-miterlimit:10;" d="M 195.558594 166.378906 L 193.84375 156.71875 "/>
<path style="fill:none;stroke-width:1.2;stroke-linecap:butt;stroke-linejoin:miter;stroke:rgb(100%,0%,0%);stroke-opacity:1;stroke-miterlimit:10;" d="M 193.84375 156.71875 L 192.125 147.058594 "/>
<path style="fill:none;stroke-width:1.2;stroke-linecap:butt;stroke-linejoin:miter;stroke:rgb(0%,0%,0%);stroke-opacity:1;stroke-miterlimit:10;" d="M 197.832031 165.972656 L 207.054688 169.316406 "/>
<path style="fill:none;stroke-width:1.2;stroke-linecap:butt;stroke-linejoin:miter;stroke:rgb(0%,0%,100%);stroke-opacity:1;stroke-miterlimit:10;" d="M 207.054688 169.316406 L 216.277344 172.660156 "/>
<path style=" stroke:none;fill-rule:nonzero;fill:rgb(100%,100%,100%);fill-opacity:1;" d="M 190.398438 141.15625 L 198.398438 141.15625 L 198.398438 152.15625 L 190.398438 152.15625 Z M 190.398438 141.15625 "/>
<g style="fill:rgb(100%,0%,0%);fill-opacity:1;">
  <use xlink:href="#glyph0-2" x="190.398438" y="149.819336"/>
</g>
<path style="fill:none;stroke-width:1.2;stroke-linecap:butt;stroke-linejoin:miter;stroke:rgb(0%,0%,100%);stroke-opacity:1;stroke-miterlimit:10;" d="M 216.277344 172.660156 L 223.785156 166.347656 "/>
<path style="fill:none;stroke-width:1.2;stroke-linecap:butt;stroke-linejoin:miter;stroke:rgb(0%,0%,0%);stroke-opacity:1;stroke-miterlimit:10;" d="M 223.785156 166.347656 L 231.289062 160.03125 "/>
<path style=" stroke:none;fill-rule:nonzero;fill:rgb(100%,100%,100%);fill-opacity:1;" d="M 209.277344 167.160156 L 223.277344 167.160156 L 223.277344 178.160156 L 209.277344 178.160156 Z M 209.277344 167.160156 "/>
<g style="fill:rgb(0%,0%,100%);fill-opacity:1;">
  <use xlink:href="#glyph0-1" x="209.277344" y="175.823242"/>
  <use xlink:href="#glyph0-3" x="216.254883" y="175.823242"/>
</g>
<path style="fill:none;stroke-width:1.2;stroke-linecap:butt;stroke-linejoin:miter;stroke:rgb(0%,0%,0%);stroke-opacity:1;stroke-miterlimit:10;" d="M 231.289062 160.03125 L 249.734375 166.71875 "/>
<path style="fill:none;stroke-width:1.2;stroke-linecap:butt;stroke-linejoin:miter;stroke:rgb(0%,0%,0%);stroke-opacity:1;stroke-miterlimit:10;" d="M 234.707031 156.359375 L 249.464844 161.707031 "/>
<path style="fill:none;stroke-width:1.2;stroke-linecap:butt;stroke-linejoin:miter;stroke:rgb(0%,0%,0%);stroke-opacity:1;stroke-miterlimit:10;" d="M 227.859375 140.710938 L 231.289062 160.03125 "/>
<path style="fill:none;stroke-width:1.2;stroke-linecap:butt;stroke-linejoin:miter;stroke:rgb(0%,0%,0%);stroke-opacity:1;stroke-miterlimit:10;" d="M 249.734375 166.71875 L 264.75 154.085938 "/>
<path style="fill:none;stroke-width:1.2;stroke-linecap:butt;stroke-linejoin:miter;stroke:rgb(0%,0%,0%);stroke-opacity:1;stroke-miterlimit:10;" d="M 264.75 154.085938 L 261.316406 134.769531 "/>
<path style="fill:none;stroke-width:1.2;stroke-linecap:butt;stroke-linejoin:miter;stroke:rgb(0%,0%,0%);stroke-opacity:1;stroke-miterlimit:10;" d="M 259.863281 152.960938 L 257.117188 137.507812 "/>
<path style="fill:none;stroke-width:1.2;stroke-linecap:butt;stroke-linejoin:miter;stroke:rgb(0%,0%,0%);stroke-opacity:1;stroke-miterlimit:10;" d="M 261.316406 134.769531 L 242.871094 128.082031 "/>
<path style="fill:none;stroke-width:1.2;stroke-linecap:butt;stroke-linejoin:miter;stroke:rgb(0%,0%,0%);stroke-opacity:1;stroke-miterlimit:10;" d="M 242.871094 128.082031 L 227.859375 140.710938 "/>
<path style="fill:none;stroke-width:1.2;stroke-linecap:butt;stroke-linejoin:miter;stroke:rgb(0%,0%,0%);stroke-opacity:1;stroke-miterlimit:10;" d="M 244.34375 132.875 L 232.332031 142.980469 "/>
<path style="fill:none;stroke-width:1.2;stroke-linecap:butt;stroke-linejoin:miter;stroke:rgb(0%,0%,0%);stroke-opacity:1;stroke-miterlimit:10;" d="M 242.871094 128.082031 L 239.441406 108.761719 "/>
<path style="fill:none;stroke-width:1.2;stroke-linecap:butt;stroke-linejoin:miter;stroke:rgb(0%,0%,0%);stroke-opacity:1;stroke-miterlimit:10;" d="M 239.441406 108.761719 L 237.722656 99.105469 "/>
<path style="fill:none;stroke-width:1.2;stroke-linecap:butt;stroke-linejoin:miter;stroke:rgb(0%,0%,100%);stroke-opacity:1;stroke-miterlimit:10;" d="M 237.722656 99.105469 L 236.007812 89.445312 "/>
<path style="fill:none;stroke-width:1.2;stroke-linecap:butt;stroke-linejoin:miter;stroke:rgb(0%,0%,0%);stroke-opacity:1;stroke-miterlimit:10;" d="M 243.640625 106.023438 L 242.269531 98.296875 "/>
<path style="fill:none;stroke-width:1.2;stroke-linecap:butt;stroke-linejoin:miter;stroke:rgb(0%,0%,100%);stroke-opacity:1;stroke-miterlimit:10;" d="M 242.269531 98.296875 L 240.898438 90.570312 "/>
<path style="fill:none;stroke-width:1.2;stroke-linecap:butt;stroke-linejoin:miter;stroke:rgb(0%,0%,0%);stroke-opacity:1;stroke-miterlimit:10;" d="M 234.550781 107.640625 L 233.179688 99.910156 "/>
<path style="fill:none;stroke-width:1.2;stroke-linecap:butt;stroke-linejoin:miter;stroke:rgb(0%,0%,100%);stroke-opacity:1;stroke-miterlimit:10;" d="M 233.179688 99.910156 L 231.804688 92.183594 "/>
<path style=" stroke:none;fill-rule:nonzero;fill:rgb(100%,100%,100%);fill-opacity:1;" d="M 233.007812 83.945312 L 240.007812 83.945312 L 240.007812 94.945312 L 233.007812 94.945312 Z M 233.007812 83.945312 "/>
<g style="fill:rgb(0%,0%,100%);fill-opacity:1;">
  <use xlink:href="#glyph0-1" x="233.007812" y="92.608398"/>
</g>
</g>
</svg>

<svg xmlns="http://www.w3.org/2000/svg" xmlns:xlink="http://www.w3.org/1999/xlink" width="300pt" height="300pt" viewBox="0 0 300 300"><defs><symbol overflow="visible"><path d="M.453 1.594v-7.938h4.5v7.938zm.5-.5h3.5v-6.938h-3.5zm0 0"/></symbol><symbol overflow="visible" id="a"><path d="M.89-6.563H2.08l2.906 5.485v-5.484h.86V0H4.656L1.75-5.484V0H.89zm0 0"/></symbol><symbol overflow="visible" id="b"><path d="M3.547-5.953c-.65 0-1.164.242-1.547.72-.375.48-.563 1.13-.563 1.952 0 .835.188 1.49.563 1.967.383.48.898.72 1.547.72.644 0 1.156-.24 1.53-.72.376-.476.564-1.132.564-1.968 0-.822-.187-1.474-.562-1.954-.375-.477-.887-.72-1.53-.72zm0-.734c.914 0 1.648.312 2.203.937.55.617.828 1.438.828 2.47 0 1.042-.277 1.87-.828 2.483-.555.617-1.29.922-2.203.922-.93 0-1.668-.305-2.22-.922C.774-1.41.5-2.237.5-3.28c0-1.033.273-1.853.828-2.47.55-.625 1.29-.938 2.22-.938zm0 0"/></symbol><symbol overflow="visible" id="c"><path d="M.89-6.563h.876v2.688H5v-2.688h.89V0H5v-3.125H1.766V0H.89zm0 0"/></symbol></defs><g><path fill="#fff" d="M0 0h300v300H0z"/><path d="M171.234 210.555l-18.445-6.688M186.25 197.922l-15.016 12.633M152.79 203.867l-3.435-19.316M149.355 184.55l-3.43-19.32M149.355 184.55l15.016-12.632M134.344 197.18l15.01-12.63M145.926 165.23l-18.446-6.683M127.48 158.547l-7.507 6.312" stroke-width="1.2" stroke="#000" stroke-miterlimit="10" fill="none"/><path d="M119.973 164.86l-7.508 6.316M112.465 171.176l1.715 9.66" stroke-width="1.2" stroke="#00f" stroke-miterlimit="10" fill="none"/><path d="M114.18 180.836l1.718 9.66" stroke-width="1.2" stroke="#000" stroke-miterlimit="10" fill="none"/><path d="M112.465 171.176l-9.223-3.344" stroke-width="1.2" stroke="#00f" stroke-miterlimit="10" fill="none"/><path d="M103.242 167.832l-9.222-3.344" stroke-width="1.2" stroke="#000" stroke-miterlimit="10" fill="none"/><path d="M109.465 165.676h7v11h-7zm0 0" fill="#fff"/><use xlink:href="#a" x="109.465" y="174.339" fill="#00f"/><path d="M115.898 190.496l18.446 6.684M92.535 162.723l-7.508 6.316" stroke-width="1.2" stroke="#000" stroke-miterlimit="10" fill="none"/><path d="M85.027 169.04l-7.507 6.315" stroke-width="1.2" stroke="#f00" stroke-miterlimit="10" fill="none"/><path d="M95.504 166.254L88 172.57" stroke-width="1.2" stroke="#000" stroke-miterlimit="10" fill="none"/><path d="M88 172.57l-7.508 6.317" stroke-width="1.2" stroke="#f00" stroke-miterlimit="10" fill="none"/><path d="M94.02 164.488l-1.715-9.656" stroke-width="1.2" stroke="#000" stroke-miterlimit="10" fill="none"/><path d="M92.305 154.832l-1.72-9.66" stroke-width="1.2" stroke="#f00" stroke-miterlimit="10" fill="none"/><path d="M71.004 171.62h8v11h-8zm0 0" fill="#fff"/><use xlink:href="#b" x="71.004" y="180.284" fill="#f00"/><path d="M90.586 145.172l-9.223-3.344" stroke-width="1.2" stroke="#f00" stroke-miterlimit="10" fill="none"/><path d="M81.363 141.828l-9.222-3.344" stroke-width="1.2" stroke="#000" stroke-miterlimit="10" fill="none"/><path d="M86.586 139.672h8v11h-8zm0 0" fill="#fff"/><use xlink:href="#b" x="86.586" y="148.335" fill="#f00"/><path d="M72.14 138.484l-3.43-19.316M67.254 137.36l-2.746-15.454M57.13 151.117l15.01-12.633M68.71 119.168l-18.444-6.688M50.266 112.48L35.25 125.11M51.734 117.277l-12.01 10.102M35.25 125.11l3.434 19.32M38.684 144.43l18.445 6.687M42.102 140.758l14.753 5.347M164.37 171.918l9.224 3.344" stroke-width="1.2" stroke="#000" stroke-miterlimit="10" fill="none"/><path d="M173.594 175.262l9.222 3.343M182.816 178.605l1.715 9.66" stroke-width="1.2" stroke="#00f" stroke-miterlimit="10" fill="none"/><path d="M184.53 188.266l1.72 9.656" stroke-width="1.2" stroke="#000" stroke-miterlimit="10" fill="none"/><path d="M182.816 178.605l7.508-6.316" stroke-width="1.2" stroke="#00f" stroke-miterlimit="10" fill="none"/><path d="M190.324 172.29l7.508-6.317" stroke-width="1.2" stroke="#000" stroke-miterlimit="10" fill="none"/><path d="M179.816 173.105h7v11h-7zm0 0" fill="#fff"/><use xlink:href="#a" x="179.816" y="181.769" fill="#00f"/><path d="M200.102 165.57l-1.715-9.66" stroke-width="1.2" stroke="#000" stroke-miterlimit="10" fill="none"/><path d="M198.387 155.91l-1.715-9.656" stroke-width="1.2" stroke="#f00" stroke-miterlimit="10" fill="none"/><path d="M195.56 166.38l-1.716-9.66" stroke-width="1.2" stroke="#000" stroke-miterlimit="10" fill="none"/><path d="M193.844 156.72l-1.72-9.66" stroke-width="1.2" stroke="#f00" stroke-miterlimit="10" fill="none"/><path d="M197.832 165.973l9.223 3.343" stroke-width="1.2" stroke="#000" stroke-miterlimit="10" fill="none"/><path d="M207.055 169.316l9.222 3.344" stroke-width="1.2" stroke="#00f" stroke-miterlimit="10" fill="none"/><path d="M190.398 141.156h8v11h-8zm0 0" fill="#fff"/><use xlink:href="#b" x="190.398" y="149.819" fill="#f00"/><path d="M216.277 172.66l7.508-6.312" stroke-width="1.2" stroke="#00f" stroke-miterlimit="10" fill="none"/><path d="M223.785 166.348l7.504-6.317" stroke-width="1.2" stroke="#000" stroke-miterlimit="10" fill="none"/><path d="M209.277 167.16h14v11h-14zm0 0" fill="#fff"/><g fill="#00f"><use xlink:href="#a" x="209.277" y="175.823"/><use xlink:href="#c" x="216.255" y="175.823"/></g><path d="M231.29 160.03l18.444 6.69M234.707 156.36l14.758 5.347M227.86 140.71l3.43 19.32M249.734 166.72l15.016-12.634M264.75 154.086l-3.434-19.316M259.863 152.96l-2.746-15.452M261.316 134.77l-18.445-6.688M242.87 128.082l-15.01 12.63M244.344 132.875l-12.012 10.105M242.87 128.082l-3.43-19.32M239.44 108.762l-1.717-9.657" stroke-width="1.2" stroke="#000" stroke-miterlimit="10" fill="none"/><path d="M237.723 99.105l-1.715-9.66" stroke-width="1.2" stroke="#00f" stroke-miterlimit="10" fill="none"/><path d="M243.64 106.023l-1.37-7.726" stroke-width="1.2" stroke="#000" stroke-miterlimit="10" fill="none"/><path d="M242.27 98.297l-1.372-7.727" stroke-width="1.2" stroke="#00f" stroke-miterlimit="10" fill="none"/><path d="M234.55 107.64l-1.37-7.73" stroke-width="1.2" stroke="#000" stroke-miterlimit="10" fill="none"/><path d="M233.18 99.91l-1.375-7.726" stroke-width="1.2" stroke="#00f" stroke-miterlimit="10" fill="none"/><path d="M233.008 83.945h7v11h-7zm0 0" fill="#fff"/><use xlink:href="#a" x="233.008" y="92.608" fill="#00f"/></g></svg>
